X:1
T:Title
%%score 1 { ( 2 4 ) | ( 3 5 ) }
L:1/8
M:4/4
K:F
V:1 treble nm="Akkordion"
V:2 bass nm="Grand Piano"
V:4 bass 
V:3 bass 
V:5 bass 
V:1
 z4 z2 z[Q:1/4=94] C | AAcF F E2 C | BB e>d c3 A | AEFG F A2 A | GDGA G3 C | AAcF F E2 C | %6
 BB e>d c3 A | cc=BA A G2 G | AA=BB c4 |[M:3/4][Q:1/4=140] z6 | z6 | z6 | z6 | z6 | z6 | z6 | z6 | %17
 z6 | z6 | z6 | z6 | z6 | z6 | z6 | z6 | z6 | z6 | z6 | z6 | z6 | z6 | z6 | z6 | z6 | z6 | z6 | %36
 z6 | z6 | z6 | z6 | z6 |] %41
V:2
 z8 | z C[K:treble]AC[K:bass] z C[K:treble] .B2 | z2 BC[K:bass] z C[K:treble] .A2 | %3
 z2 A^C[K:bass] z D[K:treble] .A2 | z2 .G2 [B,EG][Be][Bd][Bc] | z2 AC[K:bass] z C[K:treble] .B2 | %6
 z2 BC[K:bass] z C[K:treble] .A2 | z2 AC[K:bass] z C[K:treble]G[CEG] | z4 c4 |[M:3/4] d6 | c6 | %11
 B6 | A6 | A4 z2 | ^F4 z2 | A4 z2 | D6 | E6 | B6 | D6 | E6 | z2 C2 A2 | e4 z2 | d4 z2 | c6 | d6 | %26
 c6 | B6 | A6 | A4 z2 | ^F4 z2 | A4 z2 | D6 | F6 | G6 | [CFA]2 f2 d2 | c2 A2 F2 | A6 | G6 | F6- | %40
 F4 z2 |] %41
V:3
 z8 | z4 z2 EC | z C .E2 z2[K:treble] FC | z ^C[K:treble] .G2 z2 FD | %4
 z =B,[K:treble]FB,[K:bass] z[K:treble] GFE | z C[K:treble] .F2 z2[K:bass] EC | %6
 z C .E2 z2[K:treble] FC | z C ._E2 z2 =EE,, | D,,2 G,,2 G,A, [B,E]2 |[M:3/4] z2[K:treble] F2 F2 | %10
 z2[K:treble] F2 F2 | z2 [CD]2 [CD]2 | z2 C2 C2 | z2 B,2 [G,B,D]2 | z2 B,2 [G,B,D]2 | %15
 z2 B,2 [G,B,D]2 | z2 G,2 G,2 | z2 B,2 B,2 | z2 C2 C2 | [G,,G,]6 | z2 B,2 B,2 | %21
 z2 A,2[K:treble] [A,CF]2 | z2 F2 [DF_A]2 | z2 [EG]2 [^CEGB]2 | z2 [EG]2 [EG]2 | %25
 z2[K:treble] F2 F2 | z2[K:treble] F2 F2 | z2 [CD]2 [CD]2 | z2 C2 C2 | z2 B,2 [G,B,D]2 | %30
 z2 B,2 [G,B,D]2 | z2 B,2 [G,B,D]2 | z2 G,2 G,2 | z2 G,2 G,2 | z2 D2 D2 | %35
 [C,,C,]2[K:treble] F2 D2 | C2[K:bass] A,2 F,2 | z2 =B,2 G,,2 | z2 [B,C]2 [B,C]2 | F,,2 C,2 A,,2 | %40
 F,,4 z2 |] %41
V:4
 x8 | F,,4[K:treble][K:bass] G,,4[K:treble] | z4[K:bass] F,,4[K:treble] | %3
 z4[K:bass] D,4[K:treble] | x8 | z4[K:bass] G,,4[K:treble] | z4[K:bass] F,,4[K:treble] | %7
 z4[K:bass] G,,4[K:treble] | [C^FA]2 [=B,FG]2 EF G2 |[M:3/4] z2 A2 A2 | z2 A2 A2 | z2 ^F2 F2 | %12
 z2 D2 D2 | z2 D2 G2 | z2 D2 G2 | z2 C2 G2 | z2 B,2 B,2 | z2 C2 C2 | z2 G2 G2 | z2 B,2 B,2 | %20
 z2 C2 C2 | F4 z2 | z2 _A2 d2 | z2 B2 ^c2 | z2 B2 B2 | z2 A2 A2 | z2 A2 A2 | z2 ^F2 F2 | z2 D2 D2 | %29
 z2 D2 G2 | z2 D2 G2 | z2 D2 G2 | z2 B,2 B,2 | z2 D2 D2 | z2 F2 F2 | x6 | x6 | z2 F2 [=B,F]2 | %38
 z2 E2 E2 | z2 [A,C]2 [A,C]2 | [A,C]4 z2 |] %41
V:5
 x8 | x8 | C,,4 z4[K:treble] | A,,4[K:treble] z4 | G,,4[K:treble][K:bass] C,4[K:treble] | %5
 F,,4[K:treble] z4[K:bass] | C,,4 z4[K:treble] | ^F,,4 z4 | z4 C,4 |[M:3/4] [F,,F,]6[K:treble] | %10
 [A,,A,]6[K:treble] | [D,,D,]6 | [^F,,^F,]6 | [G,,G,]4 z2 | ^F,4 z2 | A,4 z2 | D,6 | [C,,C,]6 | %18
 [E,,E,]6 | x6 | [C,,C,]6 | [F,,F,]4[K:treble] z2 | E4 z2 | D4 z2 | C6 | [F,,F,]6[K:treble] | %26
 [A,,A,]6[K:treble] | [D,,D,]6 | [^F,,^F,]6 | [G,,G,]4 z2 | ^F,4 z2 | A,4 z2 | D,6 | [=B,,,=B,,]6 | %34
 [=B,,,=B,,]6 | x2[K:treble] x4 | x2[K:bass] x4 | D,4 z2 | C,6 | x6 | x6 |] %41

